common/svg/refresh-icon.svg

<svg fill="none" height="20" viewBox="0 0 20 20" width="20" xmlns="http://www.w3.org/2000/svg"><path d="m17.1429 9.52387v-.76191c0-2.20913-1.7909-4-4-4h-6.47624" stroke="#000" stroke-linecap="round" stroke-width="2"/><path d="m7.61905 9.5238v-9.52380563l-7.61904994 4.53514563z" fill="#000"/><path d="m2.85714 10.4761v.7619c.00001 2.2092 1.79087 4 4.00001 4h6.47615" stroke="#000" stroke-linecap="round" stroke-width="2"/><path d="m12.381 10.4762v9.5238l7.619-4.5351z" fill="#000"/></svg>

<svg width="20" height="20" viewBox="0 0 20 20" fill="none" xmlns="http://www.w3.org/2000/svg">
<path d="M17.1429 9.52387V8.76196C17.1429 6.55283 15.352 4.76196 13.1429 4.76196H6.66666" stroke="black" stroke-width="2" stroke-linecap="round"/>
<path d="M7.61905 9.5238L7.61905 -5.63119e-06L5.94892e-08 4.53514L7.61905 9.5238Z" fill="black"/>
<path d="M2.85714 10.4761L2.85714 11.238C2.85715 13.4472 4.64801 15.238 6.85715 15.238L13.3333 15.238" stroke="black" stroke-width="2" stroke-linecap="round"/>
<path d="M12.381 10.4762L12.381 20L20 15.4649L12.381 10.4762Z" fill="black"/>
</svg>
